src/svg/no-newline.svg

<svg height="16" width="16" xmlns="http://www.w3.org/2000/svg" viewBox="0 0 16 16">
  <path d="M16 5v3c0 0.55-0.45 1-1 1H12v2L9 8l3-3v2h2V5h2zM8 8c0 2.2-1.8 4-4 4S0 10.2 0 8s1.8-4 4-4 4 1.8 4 4zM1.5 9.66l4.16-4.16c-0.48-0.31-1.05-0.5-1.66-0.5-1.66 0-3 1.34-3 3 0 0.61 0.19 1.17 0.5 1.66z m5.5-1.66c0-0.61-0.19-1.17-0.5-1.66L2.34 10.5c0.48 0.31 1.05 0.5 1.66 0.5 1.66 0 3-1.34 3-3z" />
</svg>

<?xml version="1.0" encoding="UTF-8" standalone="no"?>
<svg width="16px" height="16px" viewBox="0 0 16 16" version="1.1" xmlns="http://www.w3.org/2000/svg" xmlns:xlink="http://www.w3.org/1999/xlink">
    <!-- Generator: Sketch 3.7.1 (28215) - http://www.bohemiancoding.com/sketch -->
    <title>no-newline</title>
    <desc>Created with Sketch.</desc>
    <defs></defs>
    <g id="Octicons" stroke="none" stroke-width="1" fill="none" fill-rule="evenodd">
        <g id="no-newline" fill="#000000">
            <path d="M16,5 L16,8 C16,8.55 15.55,9 15,9 L12,9 L12,11 L9,8 L12,5 L12,7 L14,7 L14,5 L16,5 L16,5 Z M8,8 C8,10.2 6.2,12 4,12 C1.8,12 0,10.2 0,8 C0,5.8 1.8,4 4,4 C6.2,4 8,5.8 8,8 L8,8 Z M1.5,9.66 L5.66,5.5 C5.18,5.19 4.61,5 4,5 C2.34,5 1,6.34 1,8 C1,8.61 1.19,9.17 1.5,9.66 L1.5,9.66 Z M7,8 C7,7.39 6.81,6.83 6.5,6.34 L2.34,10.5 C2.82,10.81 3.39,11 4,11 C5.66,11 7,9.66 7,8 L7,8 Z" id="Shape"></path>
        </g>
    </g>
</svg>
